resources/closedCaptionButton-cc-off.svg

<svg width="18" height="18">
  <path fill="#f4f4f7" fill-rule="evenodd" d="M16.531 16.107H5.267l1.982-2H15c.6 0 1-.4 1-1V5.274l1.946-1.964c.017.089.054.173.054.266v11.031c0 .8-.669 1.5-1.469 1.5zm-2.515-7.601h-1.218l1.005-1.014c.11.297.181.636.213 1.014zm-2.23 3.855c-.828 0-1.476-.326-1.913-.902l1.09-1.101c.136.323.374.541.796.541.514 0 .695-.44.756-1.014h1.535c-.142 1.545-.979 2.476-2.264 2.476zm-10.29 3.745C.697 16.104 0 15.406 0 14.607V3.576c0-.8.7-1.5 1.5-1.5h12.846L16.299 0l1.316 1.283-15 15.847-1.119-1.024zM3 4.107c-.6 0-1 .4-1 1v8c0 .6.4 1 1 1h.029l2.031-2.16c-.757-.503-1.191-1.457-1.191-2.744 0-1.936 1.069-3.14 2.428-3.14 1.357 0 2.136.76 2.361 2.059l3.777-4.016H3zm5.298 4.399h-.943c-.047-.623-.49-1.23-.99-1.23-.561 0-1.337.84-1.337 1.995 0 .674.381 1.427.95 1.702l2.32-2.467z"/>
</svg>

<!-- This Source Code Form is subject to the terms of the Mozilla Public
   - License, v. 2.0. If a copy of the MPL was not distributed with this
   - file, You can obtain one at http://mozilla.org/MPL/2.0/. -->
<svg xmlns="http://www.w3.org/2000/svg"
     width="18px" height="18px" viewBox="0 0 18 18">
  <path fill="context-fill" fill-rule="evenodd"
        d="M16.531,16.107H5.267l1.982-2H15c0.6,0,1-0.4,1-1V5.274
           l1.946-1.964C17.963,3.399,18,3.483,18,3.576v11.031C18,15.407,17.331,16.107,16.531,16.107z M14.016,8.506h-1.218l1.005-1.014
           C13.913,7.789,13.984,8.128,14.016,8.506z M11.786,12.361c-0.828,0-1.476-0.326-1.913-0.902l1.09-1.101
           c0.136,0.323,0.374,0.541,0.796,0.541c0.514,0,0.695-0.44,0.756-1.014h1.535C13.908,11.43,13.071,12.361,11.786,12.361z
           M1.496,16.106C0.697,16.104,0,15.406,0,14.607V3.576c0-0.8,0.7-1.5,1.5-1.5h12.846L16.299,0l1.316,1.283L2.615,17.13L1.496,16.106
           z M3,4.107c-0.6,0-1,0.4-1,1v8c0,0.6,0.4,1,1,1h0.029l2.031-2.16c-0.757-0.503-1.191-1.457-1.191-2.744
           c0-1.936,1.069-3.14,2.428-3.14c1.357,0,2.136,0.76,2.361,2.059l3.777-4.016H3z M8.298,8.506H7.355
           c-0.047-0.623-0.49-1.23-0.99-1.23c-0.561,0-1.337,0.84-1.337,1.995c0,0.674,0.381,1.427,0.95,1.702L8.298,8.506z"/>
</svg>
